X: 1728
T: Apollo Bay
R: reel
M: 4/4
K: Eminor
e.g2a fg~e2-|eged BAAG|~A3B d2de|dBAG AE~E2|
egga fg~e2-|egaB gedB|~A3B d2de|1 dBAG ~e3B:|2 dBAG .e2z2||
DEGE GAde-|eB2z gaeg-|gedB ~A2GA|BddB dedB|
DEGE GAdd|eB2B gaeg-|gedB ~A2GA|BEED ~E2BG|
DEGE GAdd|eB2B gaeg-|gedB ~A2GA|BddB .e2zd|
a4- aega|bega ~e2dB|~A3B d2de|dBAG .e2z2||

